X:7479
T:the Windermere Regatta
O:england
M:4/4
A:North-West
R:Hornpipe
K:Bb
F|\
FEDB dfdB| cBAc egec| Bfdf egdf| cfAc BABG| \
FEDB dfdB| cBAc egec| Bfdf cabe| d2B2 B2z::\
g|\
fede fbfd| fgdf c2Ac| eeec defg| BAcA F2FE| \
dB,DF dfff| EDEC eggg| Bfdf cabe| d2B2 B2:|


